Obsidian/places/16s/document-open-recent-symbolic.svg

<svg height="16" viewBox="0 0 16 16" width="16" xmlns="http://www.w3.org/2000/svg"><path d="m1 0v5h5l-1.71875-1.71875c1.0226391-.8028675 2.318003-1.28125 3.71875-1.28125 3.313708 0 6 2.6862915 6 6 0 3.313708-2.686292 6-6 6-3.3137085 0-6-2.686292-6-6 0-.700711.1229842-1.374865.34375-2h-2.09375c-.1637044.637743-.25 1.31119-.25 2 0 4.418278 3.581722 8 8 8s8-3.581722 8-8-3.581722-8-8-8c-1.956872 0-3.7661949.6769384-5.15625 1.84375zm6.90625 2.96875a1.0001 1.0001 0 0 0 -.125.03125 1.0001 1.0001 0 0 0 -.78125 1v3.6875a1.0001 1.0001 0 0 0 0 .09375 1.0001 1.0001 0 0 0 .125.75 1.0001 1.0001 0 0 0 .03125.03125 1.0001 1.0001 0 0 0 .03125.0625 1.0001 1.0001 0 0 0 .03125.03125 1.0001 1.0001 0 0 0 .03125.03125 1.0001 1.0001 0 0 0 .03125.03125 1.0001 1.0001 0 0 0 .03125.03125 1.0001 1.0001 0 0 0 .0625.03125 1.0001 1.0001 0 0 0 .03125.03125 1.0001 1.0001 0 0 0 .03125.03125 1.0001 1.0001 0 0 0 .0625.03125 1.0001 1.0001 0 0 0 .125.0625l2.46875 1.4375a1.0077822 1.0077822 0 1 0 1-1.75l-2.09375-1.21875v-3.40625a1.0001 1.0001 0 0 0 -1.09375-1.03125z" fill="#bebebe"/></svg>

<svg width="16" xmlns="http://www.w3.org/2000/svg" viewBox="0 0 16 16" height="16">
<path style="fill:#bebebe" d="M 1,0 1,5 6,5 4.28125,3.28125 C 5.3038891,2.4783825 6.599253,2 8,2 c 3.313708,0 6,2.6862915 6,6 0,3.313708 -2.686292,6 -6,6 C 4.6862915,14 2,11.313708 2,8 2,7.299289 2.1229842,6.625135 2.34375,6 L 0.25,6 C 0.0862956,6.637743 0,7.31119 0,8 c 0,4.418278 3.581722,8 8,8 4.418278,0 8,-3.581722 8,-8 C 16,3.581722 12.418278,0 8,0 6.043128,0 4.2338051,0.6769384 2.84375,1.84375 L 1,0 z M 7.90625,2.96875 A 1.0001,1.0001 0 0 0 7.78125,3 1.0001,1.0001 0 0 0 7,4 l 0,3.6875 a 1.0001,1.0001 0 0 0 0,0.09375 1.0001,1.0001 0 0 0 0.125,0.75 A 1.0001,1.0001 0 0 0 7.15625,8.5625 1.0001,1.0001 0 0 0 7.1875,8.625 1.0001,1.0001 0 0 0 7.21875,8.65625 1.0001,1.0001 0 0 0 7.25,8.6875 1.0001,1.0001 0 0 0 7.28125,8.71875 1.0001,1.0001 0 0 0 7.3125,8.75 1.0001,1.0001 0 0 0 7.375,8.78125 1.0001,1.0001 0 0 0 7.40625,8.8125 1.0001,1.0001 0 0 0 7.4375,8.84375 1.0001,1.0001 0 0 0 7.5,8.875 1.0001,1.0001 0 0 0 7.625,8.9375 l 2.46875,1.4375 a 1.0077822,1.0077822 0 1 0 1,-1.75 L 9,7.40625 9,4 A 1.0001,1.0001 0 0 0 7.90625,2.96875 z"/>
</svg>
